img/00top/なみ.svg

<svg width="15" height="46" viewBox="0 0 15 46" fill="none" xmlns="http://www.w3.org/2000/svg">
<path d="M7.128 2.584C6.872 2.75467 6.56267 2.93067 6.2 3.112C5.848 3.28267 5.496 3.42667 5.144 3.544C4.856 4.33333 4.424 5.48 3.848 6.984C3.28267 8.488 2.92533 9.42133 2.776 9.784C2.68 9.99733 2.54667 10.1627 2.376 10.28C2.20533 10.3867 2.03467 10.44 1.864 10.44C1.65067 10.44 1.50133 10.3333 1.416 10.12C1.34133 9.90667 1.304 9.61333 1.304 9.24C1.304 9.09067 1.32 8.97867 1.352 8.904C1.384 8.81867 1.45867 8.696 1.576 8.536C1.608 8.48267 1.65067 8.41867 1.704 8.344C1.768 8.25867 1.84267 8.14667 1.928 8.008C2.36533 7.304 2.75467 6.62133 3.096 5.96C3.43733 5.29867 3.736 4.6 3.992 3.864C3.928 3.87467 3.84267 3.88 3.736 3.88C3.192 3.88 2.76533 3.736 2.456 3.448C2.14667 3.14933 1.91733 2.84 1.768 2.52C1.704 2.40267 1.672 2.30667 1.672 2.232C1.672 2.17867 1.69333 2.152 1.736 2.152C1.77867 2.152 1.85333 2.20533 1.96 2.312C2.10933 2.44 2.30667 2.54667 2.552 2.632C2.808 2.70667 3.06933 2.744 3.336 2.744C3.51733 2.744 3.848 2.696 4.328 2.6C4.37067 2.30133 4.392 2.08267 4.392 1.944C4.392 1.50667 4.28 1.18133 4.056 0.967999C3.96 0.882666 3.84267 0.802666 3.704 0.728C3.56533 0.653333 3.496 0.594666 3.496 0.551999C3.496 0.498666 3.544 0.455999 3.64 0.424C3.736 0.381333 3.864 0.36 4.024 0.36C4.23733 0.36 4.456 0.397333 4.68 0.471999C5.192 0.642666 5.496 0.909333 5.592 1.272C5.63467 1.26133 5.67733 1.26133 5.72 1.272C5.77333 1.272 5.832 1.26667 5.896 1.256C6.06667 1.256 6.232 1.25067 6.392 1.24C6.552 1.21867 6.66933 1.208 6.744 1.208H6.968C7.096 1.208 7.20267 1.22933 7.288 1.272C7.39467 1.31467 7.47467 1.37867 7.528 1.464C7.592 1.54933 7.624 1.64533 7.624 1.752C7.624 1.90133 7.57067 2.05067 7.464 2.2C7.368 2.34933 7.256 2.47733 7.128 2.584ZM5.624 1.608C5.624 1.768 5.59733 1.97067 5.544 2.216C5.576 2.20533 5.656 2.168 5.784 2.104C5.98667 1.98667 6.088 1.88533 6.088 1.8C6.088 1.736 6.024 1.672 5.896 1.608L5.624 1.48V1.608ZM9.992 4.728C9.59733 4.728 9.28267 4.89333 9.048 5.224C8.824 5.544 8.712 5.99733 8.712 6.584C8.712 7.16 8.808 8.01333 9 9.144C9.064 9.528 9.10667 9.81067 9.128 9.992C10.152 10.248 10.8987 10.5573 11.368 10.92C11.56 11.048 11.704 11.1973 11.8 11.368C11.896 11.528 11.944 11.6827 11.944 11.832C11.944 12.0027 11.8853 12.152 11.768 12.28C11.6613 12.408 11.528 12.472 11.368 12.472C11.2187 12.472 11.048 12.424 10.856 12.328C10.664 12.232 10.4347 12.0933 10.168 11.912C9.92267 11.752 9.624 11.5867 9.272 11.416V11.544C9.272 12.1733 9.02667 12.6747 8.536 13.048C8.056 13.4213 7.47467 13.608 6.792 13.608C6.39733 13.608 6.01333 13.5333 5.64 13.384C5.27733 13.2453 4.97867 13.0373 4.744 12.76C4.50933 12.4827 4.392 12.152 4.392 11.768C4.392 11.128 4.696 10.6373 5.304 10.296C5.912 9.944 6.63733 9.768 7.48 9.768C7.64 9.768 7.768 9.77333 7.864 9.784C7.85333 9.48533 7.848 9.02667 7.848 8.408C7.848 7.98133 7.85333 7.66667 7.864 7.464C7.896 6.81333 7.98667 6.28533 8.136 5.88C8.28533 5.47467 8.536 5.13867 8.888 4.872C9.24 4.59467 9.74667 4.34933 10.408 4.136C10.5787 4.08267 10.664 3.992 10.664 3.864C10.664 3.72533 10.5947 3.58133 10.456 3.432C10.328 3.28267 10.136 3.09067 9.88 2.856C9.77333 2.80267 9.72 2.75467 9.72 2.712C9.72 2.66933 9.77867 2.648 9.896 2.648C10.0347 2.648 10.2213 2.68 10.456 2.744C10.9787 2.872 11.4587 3.11733 11.896 3.48C12.344 3.832 12.568 4.21067 12.568 4.616C12.568 4.872 12.488 5.08 12.328 5.24C12.168 5.4 11.976 5.48 11.752 5.48C11.592 5.48 11.4533 5.45333 11.336 5.4C11.2293 5.336 11.0747 5.22933 10.872 5.08C10.6907 4.96267 10.5307 4.87733 10.392 4.824C10.264 4.76 10.1307 4.728 9.992 4.728ZM6.472 12.568C7.02667 12.568 7.39467 12.4293 7.576 12.152C7.75733 11.8747 7.85333 11.4747 7.864 10.952C7.40533 10.8667 7.01067 10.824 6.68 10.824C6.22133 10.824 5.832 10.888 5.512 11.016C5.20267 11.144 5.048 11.3573 5.048 11.656C5.048 11.944 5.18667 12.168 5.464 12.328C5.752 12.488 6.088 12.568 6.472 12.568ZM13.768 41.832C13.9813 42.0347 14.088 42.2533 14.088 42.488C14.088 42.6587 14.0347 42.808 13.928 42.936C13.8213 43.064 13.6827 43.128 13.512 43.128C13.2133 43.128 12.872 42.9893 12.488 42.712L12.104 42.424C11.976 42.328 11.5173 41.9813 10.728 41.384C10.5787 41.64 10.4347 41.8747 10.296 42.088C9.60267 43.1333 8.776 43.9013 7.816 44.392C6.856 44.8827 5.85333 45.1333 4.808 45.144C4.65867 45.144 4.584 45.1227 4.584 45.08C4.584 45.048 4.616 45.0213 4.68 45C4.75467 44.968 4.84 44.9413 4.936 44.92C5.75733 44.7173 6.54667 44.3333 7.304 43.768C8.072 43.2027 8.71733 42.3813 9.24 41.304C9.31467 41.1547 9.416 40.9307 9.544 40.632C8.936 40.2907 8.30667 40.0293 7.656 39.848C7.016 39.656 6.32267 39.5547 5.576 39.544C5.30933 40.088 4.968 40.8293 4.552 41.768C4.22133 42.504 3.88533 43.0693 3.544 43.464C3.20267 43.848 2.78667 44.04 2.296 44.04C1.912 44.04 1.592 43.9013 1.336 43.624C1.08 43.336 0.952 42.968 0.952 42.52C0.952 41.8373 1.224 41.1707 1.768 40.52C2.13067 40.104 2.57333 39.7627 3.096 39.496C3.61867 39.2293 4.17867 39.048 4.776 38.952C5.53333 37.64 6.12533 36.6373 6.552 35.944C6.648 35.8053 6.73333 35.6827 6.808 35.576C6.88267 35.4693 6.94667 35.3787 7 35.304C7.224 34.9947 7.38933 34.7547 7.496 34.584C7.60267 34.4027 7.656 34.2533 7.656 34.136C7.656 34.0507 7.61867 33.9813 7.544 33.928C7.48 33.864 7.416 33.832 7.352 33.832C7.23467 33.832 7.08533 33.9013 6.904 34.04C6.744 34.1573 6.472 34.4187 6.088 34.824L5.656 35.272C5.42133 35.4853 5.208 35.592 5.016 35.592C4.77067 35.592 4.472 35.4533 4.12 35.176C3.768 34.888 3.52267 34.6053 3.384 34.328C3.33067 34.232 3.304 34.1253 3.304 34.008C3.304 33.912 3.34133 33.864 3.416 33.864C3.48 33.864 3.54933 33.8907 3.624 33.944C3.72 34.008 3.84267 34.0613 3.992 34.104C4.14133 34.1467 4.29067 34.168 4.44 34.168C4.62133 34.168 4.82933 34.1253 5.064 34.04C5.29867 33.9547 5.58667 33.8267 5.928 33.656C6.19467 33.5173 6.47733 33.3947 6.776 33.288C6.81867 33.2667 6.92533 33.224 7.096 33.16C7.27733 33.0853 7.44267 33.048 7.592 33.048C7.848 33.048 8.16267 33.1707 8.536 33.416C9.05867 33.7787 9.32 34.104 9.32 34.392C9.32 34.6587 9.13867 34.9413 8.776 35.24C7.70933 36.1573 6.76533 37.3627 5.944 38.856C7.128 38.8773 8.44 39.1653 9.88 39.72C10.04 39.208 10.12 38.76 10.12 38.376C10.12 37.7147 9.896 37.192 9.448 36.808C9.37333 36.7547 9.336 36.7067 9.336 36.664C9.336 36.6213 9.37333 36.6 9.448 36.6C9.512 36.6 9.61333 36.6213 9.752 36.664C9.89067 36.696 10.0347 36.7387 10.184 36.792C10.5253 36.92 10.7867 37.0427 10.968 37.16C11.1493 37.256 11.288 37.432 11.384 37.688C11.48 37.9333 11.528 38.2373 11.528 38.6C11.528 38.7173 11.5173 38.904 11.496 39.16C11.6773 39.5227 11.896 39.8853 12.152 40.248C12.408 40.6 12.664 40.8987 12.92 41.144C13.0373 41.2613 13.1653 41.3627 13.304 41.448C13.4853 41.576 13.64 41.704 13.768 41.832ZM11.4 39.624C11.3467 39.848 11.2827 40.072 11.208 40.296L12.136 40.776C11.9227 40.456 11.6773 40.072 11.4 39.624ZM4.376 39.64C3.81067 39.736 3.304 39.9173 2.856 40.184C2.41867 40.44 2.08267 40.7973 1.848 41.256C1.70933 41.5013 1.64 41.7413 1.64 41.976C1.64 42.1573 1.67733 42.3013 1.752 42.408C1.83733 42.504 1.96 42.552 2.12 42.552C2.312 42.552 2.49867 42.4773 2.68 42.328C2.86133 42.1787 3.032 41.976 3.192 41.72L4.376 39.64Z" fill="black"/>
</svg>

<svg width="15" height="46" fill="none" xmlns="http://www.w3.org/2000/svg"><path d="M7.128 2.584a8.705 8.705 0 0 1-1.984.96c-.288.79-.72 1.936-1.296 3.44a138.908 138.908 0 0 1-1.072 2.8c-.096.213-.23.379-.4.496a.96.96 0 0 1-.512.16c-.213 0-.363-.107-.448-.32-.075-.213-.112-.507-.112-.88 0-.15.016-.261.048-.336.032-.085.107-.208.224-.368.032-.053.075-.117.128-.192.064-.085.139-.197.224-.336.437-.704.827-1.387 1.168-2.048.341-.661.64-1.36.896-2.096-.064.01-.15.016-.256.016-.544 0-.97-.144-1.28-.432a3.168 3.168 0 0 1-.688-.928.645.645 0 0 1-.096-.288c0-.053.021-.08.064-.08s.117.053.224.16c.15.128.347.235.592.32.256.075.517.112.784.112.181 0 .512-.048.992-.144.043-.299.064-.517.064-.656 0-.437-.112-.763-.336-.976a1.843 1.843 0 0 0-.352-.24C3.565.653 3.496.595 3.496.552c0-.053.048-.096.144-.128A.96.96 0 0 1 4.024.36c.213 0 .432.037.656.112.512.17.816.437.912.8a.26.26 0 0 1 .128 0c.053 0 .112-.005.176-.016.17 0 .336-.005.496-.016.16-.021.277-.032.352-.032h.224c.128 0 .235.021.32.064a.484.484 0 0 1 .24.192.468.468 0 0 1 .096.288c0 .15-.053.299-.16.448-.096.15-.208.277-.336.384Zm-1.504-.976c0 .16-.027.363-.08.608.032-.01.112-.048.24-.112.203-.117.304-.219.304-.304 0-.064-.064-.128-.192-.192l-.272-.128v.128Zm4.368 3.12c-.395 0-.71.165-.944.496-.224.32-.336.773-.336 1.36 0 .576.096 1.43.288 2.56.064.384.107.667.128.848 1.024.256 1.77.565 2.24.928.192.128.336.277.432.448.096.16.144.315.144.464 0 .17-.059.32-.176.448a.5.5 0 0 1-.4.192c-.15 0-.32-.048-.512-.144a6.217 6.217 0 0 1-.688-.416 8.23 8.23 0 0 0-.896-.496v.128c0 .63-.245 1.13-.736 1.504-.48.373-1.061.56-1.744.56-.395 0-.779-.075-1.152-.224a2.16 2.16 0 0 1-.896-.624 1.486 1.486 0 0 1-.352-.992c0-.64.304-1.13.912-1.472.608-.352 1.333-.528 2.176-.528.16 0 .288.005.384.016a42.534 42.534 0 0 1 0-2.32c.032-.65.123-1.179.272-1.584.15-.405.4-.741.752-1.008.352-.277.859-.523 1.52-.736.17-.053.256-.144.256-.272 0-.139-.07-.283-.208-.432a7.197 7.197 0 0 0-.576-.576c-.107-.053-.16-.101-.16-.144 0-.043.059-.064.176-.064.139 0 .325.032.56.096a3.563 3.563 0 0 1 1.44.736c.448.352.672.73.672 1.136 0 .256-.08.464-.24.624a.786.786 0 0 1-.576.24.998.998 0 0 1-.416-.08 6.537 6.537 0 0 1-.464-.32 2.692 2.692 0 0 0-.48-.256.883.883 0 0 0-.4-.096Zm-3.52 7.84c.555 0 .923-.139 1.104-.416.181-.277.277-.677.288-1.2a6.618 6.618 0 0 0-1.184-.128c-.459 0-.848.064-1.168.192-.31.128-.464.341-.464.64 0 .288.139.512.416.672.288.16.624.24 1.008.24Zm7.296 29.264c.213.203.32.421.32.656 0 .17-.053.32-.16.448a.516.516 0 0 1-.416.192c-.299 0-.64-.139-1.024-.416l-.384-.288-1.376-1.04c-.15.256-.293.49-.432.704-.693 1.045-1.52 1.813-2.48 2.304a6.68 6.68 0 0 1-3.008.752c-.15 0-.224-.021-.224-.064 0-.032.032-.059.096-.08.075-.032.16-.059.256-.08.821-.203 1.61-.587 2.368-1.152.768-.565 1.413-1.387 1.936-2.464.075-.15.176-.373.304-.672a8.518 8.518 0 0 0-1.888-.784 7.591 7.591 0 0 0-2.08-.304 66.77 66.77 0 0 0-1.024 2.224c-.33.736-.667 1.301-1.008 1.696-.341.384-.757.576-1.248.576-.384 0-.704-.139-.96-.416-.256-.288-.384-.656-.384-1.104 0-.683.272-1.35.816-2a4.38 4.38 0 0 1 1.328-1.024 5.641 5.641 0 0 1 1.68-.544 133.29 133.29 0 0 1 1.776-3.008 87.298 87.298 0 0 1 .448-.64c.224-.31.39-.55.496-.72.107-.181.16-.33.16-.448a.245.245 0 0 0-.112-.208c-.064-.064-.128-.096-.192-.096-.117 0-.267.07-.448.208-.16.117-.432.379-.816.784l-.432.448c-.235.213-.448.32-.64.32-.245 0-.544-.139-.896-.416-.352-.288-.597-.57-.736-.848a.648.648 0 0 1-.08-.32c0-.096.037-.144.112-.144.064 0 .133.027.208.08a1.623 1.623 0 0 0 .816.224c.181 0 .39-.043.624-.128.235-.085.523-.213.864-.384.267-.139.55-.261.848-.368.043-.021.15-.064.32-.128.181-.075.347-.112.496-.112.256 0 .57.123.944.368.523.363.784.688.784.976 0 .267-.181.55-.544.848-1.067.917-2.01 2.123-2.832 3.616 1.184.021 2.496.31 3.936.864.16-.512.24-.96.24-1.344 0-.661-.224-1.184-.672-1.568-.075-.053-.112-.101-.112-.144 0-.043.037-.064.112-.064.064 0 .165.021.304.064a4.228 4.228 0 0 1 1.216.496c.181.096.32.272.416.528.096.245.144.55.144.912 0 .117-.01.304-.032.56.181.363.4.725.656 1.088.256.352.512.65.768.896.117.117.245.219.384.304.181.128.336.256.464.384ZM11.4 39.624a7.916 7.916 0 0 1-.192.672l.928.48a41.33 41.33 0 0 1-.736-1.152Zm-7.024.016a4.373 4.373 0 0 0-1.52.544 2.573 2.573 0 0 0-1.008 1.072 1.458 1.458 0 0 0-.208.72c0 .181.037.325.112.432.085.096.208.144.368.144.192 0 .379-.075.56-.224.181-.15.352-.352.512-.608l1.184-2.08Z" fill="#000"/></svg>
